assets/svg/networks/wallet_aptos.svg

<svg width="36" height="36" viewBox="0 0 36 36" fill="none" xmlns="http://www.w3.org/2000/svg">
<g clip-path="url(#clip0_47087_154981)">
<rect width="36" height="36" rx="12" fill="#0E0E0E"/>
<g clip-path="url(#clip1_47087_154981)">
<path d="M24.5942 14.0361H22.4765C22.2355 14.0361 21.9946 13.9334 21.8218 13.7452L20.9606 12.7862C20.7024 12.5126 20.2896 12.478 19.9968 12.7353C19.9795 12.7526 19.9622 12.7699 19.945 12.7862L19.2048 13.6079C18.9638 13.8815 18.6192 14.0361 18.2582 14.0361H6.63648C6.31008 14.9951 6.0864 15.9878 6 16.9987H16.967C17.1562 16.9987 17.3453 16.9132 17.4835 16.7759L18.4992 15.7142C18.6202 15.5769 18.8093 15.5087 18.9811 15.5087H19.0157C19.2048 15.5087 19.3949 15.5942 19.5322 15.7315L20.3933 16.6905C20.5478 16.8787 20.7888 16.9814 21.048 16.9814H30C29.9136 15.9715 29.7072 14.9779 29.3626 14.0188H24.5933L24.5942 14.0361ZM12.6451 23.2137C12.8342 23.2137 13.0243 23.1283 13.1616 22.991L14.1773 21.9292C14.2982 21.7919 14.4874 21.7238 14.6592 21.7238H14.711C14.9002 21.7238 15.0902 21.8092 15.2275 21.9465L16.0886 22.9055C16.2605 23.0937 16.4842 23.1964 16.7434 23.1964H28.8806C29.3453 22.2547 29.6726 21.2447 29.879 20.2175H18.2237C17.9827 20.2175 17.7418 20.1148 17.5872 19.9267L16.7261 18.9676C16.6051 18.8303 16.416 18.7449 16.2096 18.7449C16.0205 18.7449 15.8314 18.8303 15.7104 18.9676L14.9702 19.7894C14.7293 20.063 14.3846 20.2175 14.0064 20.2175H6.18912C6.37824 21.2447 6.72288 22.2547 7.17024 23.2137H12.6451ZM21.2534 10.7999C21.4426 10.7999 21.6326 10.7145 21.7699 10.5772L22.7856 9.51547C22.9066 9.37819 23.0957 9.31003 23.2675 9.31003H23.3194C23.5085 9.31003 23.6986 9.39547 23.8186 9.53275L24.6797 10.4918C24.8515 10.6799 25.0752 10.7827 25.3344 10.7827H27.6413C23.6467 5.49211 16.1059 4.43035 10.7866 8.40283C9.87456 9.08731 9.06528 9.87547 8.39328 10.7827H21.2544L21.2534 10.7999ZM16.6051 26.1763H13.4544C13.2134 26.1763 12.9725 26.0735 12.8179 25.8854L11.9568 24.9263C11.6986 24.6527 11.2685 24.6182 10.993 24.8755C10.9757 24.8927 10.9584 24.91 10.9411 24.9263L10.201 25.7654C9.96 26.039 9.61536 26.1935 9.2544 26.1935H9.20256C13.7309 31.0223 21.3571 31.2959 26.2128 26.7926C26.4192 26.6044 26.6256 26.399 26.8157 26.1935L16.6051 26.1763Z" fill="white"/>
</g>
</g>
<defs>
<clipPath id="clip0_47087_154981">
<rect width="36" height="36" fill="white"/>
</clipPath>
<clipPath id="clip1_47087_154981">
<rect width="24" height="24" fill="white" transform="translate(6 6)"/>
</clipPath>
</defs>
</svg>

<svg xmlns="http://www.w3.org/2000/svg" width="36" height="36" fill="none"><g clip-path="url(#a)"><rect width="36" height="36" fill="#0E0E0E" rx="12"/><g clip-path="url(#b)"><path fill="#fff" d="M24.594 14.036h-2.117a.9.9 0 0 1-.655-.29l-.861-.96a.683.683 0 0 0-1.016 0l-.74.822a1.26 1.26 0 0 1-.947.428H6.636A12.5 12.5 0 0 0 6 17h10.967c.19 0 .378-.086.517-.223l1.015-1.062a.65.65 0 0 1 .482-.205h.035c.189 0 .379.085.516.223l.861.959c.155.188.396.29.655.29H30a11.7 11.7 0 0 0-.637-2.962h-4.77zm-11.949 9.178c.19 0 .38-.086.517-.223l1.015-1.062a.65.65 0 0 1 .482-.205h.052c.19 0 .38.085.516.223l.862.959c.172.188.395.29.654.29h12.138c.464-.941.792-1.951.998-2.979H18.224a.83.83 0 0 1-.637-.29l-.86-.96a.69.69 0 0 0-1.017 0l-.74.822a1.27 1.27 0 0 1-.964.428H6.19c.19 1.028.534 2.038.981 2.997zM21.253 10.8c.19 0 .38-.086.517-.223l1.016-1.062a.65.65 0 0 1 .481-.205h.052c.19 0 .38.085.5.223l.86.959c.173.188.396.29.655.29h2.307c-3.994-5.29-11.535-6.352-16.854-2.38a11.7 11.7 0 0 0-2.394 2.38h12.861zm-4.648 15.376h-3.15a.83.83 0 0 1-.637-.29l-.861-.96c-.258-.273-.689-.308-.964-.05l-.052.05-.74.84a1.26 1.26 0 0 1-.947.428h-.051c4.528 4.828 12.154 5.102 17.01.599.206-.189.413-.394.603-.6z"/></g></g><defs><clipPath id="a"><path fill="#fff" d="M0 0h36v36H0z"/></clipPath><clipPath id="b"><path fill="#fff" d="M6 6h24v24H6z"/></clipPath></defs></svg>
